src/actions/16/system-suspend.svg

<svg width="16px" height="16px" version="1.1" viewBox="0 0 16 16" xmlns="http://www.w3.org/2000/svg">
 <path d="m5.125 2.9453c-1.8164 1.0312-2.9414 2.9609-2.9414 5.0547 0 3.2148 2.6016 5.8164 5.8125 5.8164 2.0859 0 4.0117-1.125 5.0469-2.9375 0-0.003906 0.003906-0.003906 0.003906-0.003906l-0.53516-0.53906c0 0.003906 0 0.003906-0.003907 0.003906-0.71875 0.375-1.5195 0.57031-2.332 0.57031-2.8086 0-5.0859-2.2812-5.0859-5.0938 0-0.8125 0.19531-1.6133 0.57031-2.3359zm-0.54297 1.2891c-0.14453 0.51562-0.21875 1.0469-0.21875 1.582 0 3.2148 2.6016 5.8203 5.8125 5.8203 0.53906-0.003907 1.0742-0.078125 1.5898-0.22656-0.96094 1.0664-2.332 1.6797-3.7695 1.6797-2.8086 0-5.0859-2.2773-5.0859-5.0898 0-1.4375 0.60938-2.8047 1.6719-3.7656zm3.9336 2.3828h1.2461l-0.019531 0.65625h-2.4727l1.2461-1.9648h-1.2461v-0.65234h2.4922zm3.3281-1.7461h1.2461l-0.023438 0.65625h-2.4727l1.25-1.9648h-1.25v-0.65234h2.4961z" fill="#2e3440"/>
</svg>

<svg xmlns="http://www.w3.org/2000/svg" xmlns:xlink="http://www.w3.org/1999/xlink" width="16px" height="16px" viewBox="0 0 16 16" version="1.1">
<g id="surface1">
<path style=" stroke:none;fill-rule:nonzero;fill:rgb(18.039216%,20.392157%,25.098041%);fill-opacity:1;" d="M 5.125 2.945312 C 3.308594 3.976562 2.183594 5.90625 2.183594 8 C 2.183594 11.214844 4.785156 13.816406 7.996094 13.816406 C 10.082031 13.816406 12.007812 12.691406 13.042969 10.878906 C 13.042969 10.875 13.046875 10.875 13.046875 10.875 L 12.511719 10.335938 C 12.511719 10.339844 12.511719 10.339844 12.507812 10.339844 C 11.789062 10.714844 10.988281 10.910156 10.175781 10.910156 C 7.367188 10.910156 5.089844 8.628906 5.089844 5.816406 C 5.089844 5.003906 5.285156 4.203125 5.660156 3.480469 Z M 4.582031 4.234375 C 4.4375 4.75 4.363281 5.28125 4.363281 5.816406 C 4.363281 9.03125 6.964844 11.636719 10.175781 11.636719 C 10.714844 11.632812 11.25 11.558594 11.765625 11.410156 C 10.804688 12.476562 9.433594 13.089844 7.996094 13.089844 C 5.1875 13.089844 2.910156 10.8125 2.910156 8 C 2.910156 6.5625 3.519531 5.195312 4.582031 4.234375 Z M 8.515625 6.617188 L 9.761719 6.617188 L 9.742188 7.273438 L 7.269531 7.273438 L 8.515625 5.308594 L 7.269531 5.308594 L 7.269531 4.65625 L 9.761719 4.65625 Z M 11.84375 4.871094 L 13.089844 4.871094 L 13.066406 5.527344 L 10.59375 5.527344 L 11.84375 3.5625 L 10.59375 3.5625 L 10.59375 2.910156 L 13.089844 2.910156 Z M 11.84375 4.871094 "/>
</g>
</svg>
